icon/pk/topbuzz.svg

<svg viewBox="0 0 48 48" fill="none" xmlns="http://www.w3.org/2000/svg" height="1em" width="1em">
  <path d="M18.9054 18.168L10.3257 16.3443C9.76801 16.2257 9.41204 15.6776 9.53057 15.12L11.4621 6.03265C11.5807 5.47501 12.1288 5.11904 12.6865 5.23757L41.9678 11.4615C42.5254 11.58 42.8814 12.1282 42.7629 12.6858L40.8313 21.7731C40.7128 22.3308 40.1646 22.6867 39.607 22.5682L31.1006 20.7601C30.7133 20.6778 30.4837 20.806 30.4117 21.1448C29.5295 25.295 28.2063 31.5204 26.4419 39.821C26.3234 40.3786 25.7752 40.7346 25.2176 40.616L16.1303 38.6845C15.5727 38.5659 15.2167 38.0178 15.3352 37.4602C17.1 29.1573 18.4236 22.9302 19.3061 18.7788C19.3773 18.4435 19.2438 18.2399 18.9054 18.168Z" fill="#2F88FF" stroke="black" stroke-width="4" stroke-linejoin="round"/>
</svg>

<svg width="48" height="48" fill="none" xmlns="http://www.w3.org/2000/svg"><path d="m18.905 18.168-8.58-1.824a1.032 1.032 0 0 1-.794-1.224l1.931-9.087a1.032 1.032 0 0 1 1.225-.795l29.28 6.223c.558.119.914.667.796 1.225l-1.932 9.087a1.032 1.032 0 0 1-1.224.795l-8.506-1.808c-.388-.082-.617.046-.69.385l-3.97 18.676a1.032 1.032 0 0 1-1.223.795l-9.088-1.931a1.032 1.032 0 0 1-.795-1.225l3.971-18.681c.071-.335-.062-.54-.4-.611Z" fill="#2F88FF" stroke="#000" stroke-width="4" stroke-linejoin="round"/></svg>
